X:25
T:Brenda Stubbert's
Z: id:dc-reel-385
M:C
L:1/8
K:A Dorian
G|A2BA GAAB|A2Bd edde|G2BA BGGA|BcBA BGGB|!
A2BA GAAB|A2Bd edda|gedB GABd|e2dB eAA:|!
G|A2a2 A2g2|Aage ageg|G2BA BGGA|BcBA BGGB|!
[1 A2a2 A2g2|Aage agea|gedB GABd|e2dB eAA:|!
[2 A2BA GAAB|A2Bd edda|gedB GABd|e2dB eAA|]!

